!!!COM: Schubert, Franz
!!!CDT: 1797/01/31-1828/11/19
!!!SCT: D. 365
!!!OPR: 36 Originaltänze
!!!OPS: 9
!!!ONM: 11
**kern	**kern
*part1	*part1
*staff2	*staff1
*I"Klavier	*
*I'Klav.	*
*clefF4	*clefG2
*k[b-e-a-d-]	*k[b-e-a-d-]
*M3/4	*M3/4
=1	=1
*A-:	*
4r	(8a-L
.	8b-J)
=	=
8A-L 8c	(4cc
8e-J	.
8E-L	4ee-
8e-J	.
8A-L 8c	4a-)
8e-J	.
=	=
8GL 8d-	(2cc
8e-J	.
8E-L	.
8e-J	.
8GL 8d-	4b-)
8e-J	.
=	=
8GL 8d-	(4dd-
8e-J	.
8E-L	4ff
8e-J	.
8GL 8d-	4b-)
8e-J	.
=	=
8A-L 8c	(2ee-
8e-J	.
8E-L	.
8e-J	.
8A-L 8c	4cc)
8e-J	.
!!linebreak:original
=	=
8A-L 8c	4ccc
8e-J	.
8E-L	4eee-
8e-J	.
8A-L 8c	8aa-L
8e-J	8bb-J
=	=
8GL 8d-	2ccc
8e-J	.
8E-L	.
8e-J	.
8GL 8d-	4bb-
8e-J	.
=	=
8GL 8d-	4ddd-
8e-J	.
8E-L	4fff
8e-J	.
8B-L 8d-	4ggt
8e-J	.
=	=
4A- 4c	2aa-
4AA-	.
=:|!|:	=:|!|:
*D-:	*
4r	(8ccL
.	8dd-J)
=	=
*^	*
8G-XL	2.G-	(4ee-
8e-J	.	.
8A-L 8c	.	4aa-
8e-J	.	.
8A-L 8c	.	4cc)
8e-J	.	.
!!linebreak:original
=	=	=
8FL	2.F	(2ee-^
8d-J	.	.
8A-L	.	.
8d-J	.	.
8A-L	.	4dd-)
8d-J	.	.
=	=	=
*B-:	*B-:	*
8E-L	2.E-	4cc
8cJ	.	.
8A-L	.	(8ffL
8cJ	.	8ee-J
8A-L	.	8dd-L
8cJ	.	8ccJ)
=	=	=
8DnL	2.D	2an^
8B-J	.	.
8A-L	.	.
8B-J	.	.
8A-L	.	4b-
8B-J	.	.
=	=	=
*A-:	*A-:	*
8D-L	2.D-	(4bb-
8B-J	.	.
8GL	.	4eee-
8B-J	.	.
8GL	.	4gg)
8B-J	.	.
*v	*v	*
=	=
8CL	(4.fff^
8cJ	.
8E-L	.
8cJ	8eee-
8A-L	8ddd-L
8cJ	8cccJ)
!!linebreak:original
=	=
8GL 8d-	(4.ccc^
8e-J	.
8E-L	.
8e-J	8bb-
8B-L 8d-	8aa-L
8e-J	8ggJ)
=	=
4A- 4c	4aa-
4AA-	4r
=:|!	=:|!
*-	*-
!!!system-decoration: {(s1,s2)}
!!!AGN: Walzer
!!!EED: Wolfgang Drescher
!!!END: 2025/12/03
!!!ENC: Florian Moldaschl
!!!EEV: 2025/12/03
!!!title: @{OPR}, @{SCT} №@{ONM}